X: 1
T: Old Faithful
C: Jerry Holland
S: "Donough O'Donovan" <odono@IINET.NET.AU> irtrad-l 2001-9-16
R: march
M: 4/4
L: 1/8
K: D
ag||: "D"f2 ed "A"c2 Bc|"D" d2 AG FADd| "G"B2 AG "D/f"F2 ED|"A7" G2 E2 E2 (3a^g=g|!
"D"f2 ef "Em"gedc| "D/f"dA"G"BG "D"F2 ED|"G" BcdB"A" AFGE|1"D"F2 D2 D2 ag:||2 "D"F2 D2D2 fg||!
"D"abag "Bm"~f2 ef| "G"gage "A"~c2 BA| "Bm"dcde fc"G"gf| "A"e2 E2E2 fg|"D" abag "Bm"~f2 ef|!
"G"gedc "D/f"d2 (3AB=c| "G" BAGB "A"AFGE| "D"F2 D2 D2 fg| "D"abag "Bm"~f2 af|!
"Em"gbge "A"ceAc| "Bm"dcde "D/f"fdef|"E" ~ ^g3  f/g/ "A"a2 FE|"D" DFAd "Em"EGBe|!
"D/f" FAdf "G"GBdg|"D/f"afed "A"cbag|"Bm" (3fgf "G"d2"D" d2|| ag||
